evolvere-2-blue/apps/18/applications-other.svg

<?xml version="1.0" encoding="UTF-8"?>
<!-- Created with Inkscape (http://www.inkscape.org/) -->
<svg width="18" height="18" version="1.1" xmlns="http://www.w3.org/2000/svg" xmlns:cc="http://creativecommons.org/ns#" xmlns:dc="http://purl.org/dc/elements/1.1/" xmlns:rdf="http://www.w3.org/1999/02/22-rdf-syntax-ns#">
	<metadata>
		<rdf:RDF>
			<cc:Work rdf:about="">
				<dc:format>image/svg+xml</dc:format>
				<dc:type rdf:resource="http://purl.org/dc/dcmitype/StillImage"/>
			</cc:Work>
		</rdf:RDF>
	</metadata>
	<defs>
		<style id="current-color-scheme" type="text/css">.ColorScheme-Text {color:#090d11;}.ColorScheme-Background{color:#ffffff;}</style>
	</defs>
	<g transform="translate(3364.4 -2100.7)">
		<path transform="translate(1,1)" d="m-3363.4 2101.7v6h6v-6zm8 0v6h6v-6zm-6 2h1 1 1v1 1 1h-1-1-1v-1-1zm8 0h1v1h1v1h-1-1v1h-1v-1h1v-1zm-7 1v1h1v-1zm-3 5v6h6v-6zm8 0v6h6v-6zm-6 1h1v1h1v-1h1v1h-1v1h1v1h-1v-1h-1v1h-1v-1h1v-1h-1zm7 1h1 1 1v1 1h-1v-1h-1v1h-1v-1z" fill="currentColor" fill-opacity=".75" style="fill-opacity:.75;fill:currentColor" class="ColorScheme-Text"/>
		<path transform="translate(-3363.4 2101.7)" d="m0 0v8h1 7v-1-6-1h-7-1zm8 8v8h1 7v-1-6-1h-7-1zm1-8v1h6v6h1v-6-1h-7zm-8 1h6v6h-6v-6zm2 2v3h1 1 1v-2-1h-2-1zm8 0v2h1 1v-1h-1v-1h-1zm0 2h-1v1h1v-1zm-7-1h1v1h-1v-1zm-4 5v7h1 6v-1h-6v-6h-1zm9 0h6v6h-6v-6zm-6 1v1h1v-1h-1zm1 1v1h1v-1h-1zm1 0h1v-1h-1v1zm0 1v1h1v-1h-1zm-1 0h-1v1h1v-1zm6-1v2h1v-1h1v1h1v-1-1h-2-1z" fill="currentColor" fill-opacity=".5" style="fill-opacity:.5;fill:currentColor" class="ColorScheme-Background"/>
	</g>
</svg>

<?xml version="1.0" encoding="UTF-8" standalone="no"?>
<!-- Created with Inkscape (http://www.inkscape.org/) -->
<svg xmlns:dc="http://purl.org/dc/elements/1.1/" xmlns:cc="http://creativecommons.org/ns#" xmlns:rdf="http://www.w3.org/1999/02/22-rdf-syntax-ns#" xmlns:svg="http://www.w3.org/2000/svg" xmlns="http://www.w3.org/2000/svg" xmlns:sodipodi="http://sodipodi.sourceforge.net/DTD/sodipodi-0.dtd" xmlns:inkscape="http://www.inkscape.org/namespaces/inkscape" width="18" height="18" id="svg27665" version="1.1" inkscape:version="0.48.3.1 r9886" sodipodi:docname="applications-other.svg">
  <defs id="defs27667"/>
  <sodipodi:namedview id="base" pagecolor="#ffffff" bordercolor="#666666" borderopacity="1.0" inkscape:pageopacity="0.0" inkscape:pageshadow="2" inkscape:zoom="45.254834" inkscape:cx="7.2096138" inkscape:cy="8.0573992" inkscape:document-units="px" inkscape:current-layer="layer1" showgrid="true" inkscape:window-width="1920" inkscape:window-height="1033" inkscape:window-x="-10" inkscape:window-y="25" inkscape:window-maximized="1" inkscape:snap-bbox="true" inkscape:bbox-paths="true" inkscape:bbox-nodes="true" inkscape:snap-bbox-edge-midpoints="true" inkscape:snap-bbox-midpoints="true" inkscape:object-paths="true" inkscape:snap-intersection-paths="true" inkscape:object-nodes="true" inkscape:snap-smooth-nodes="true" inkscape:snap-midpoints="true" inkscape:snap-object-midpoints="true" inkscape:snap-center="true" inkscape:snap-global="true" showguides="false" inkscape:guide-bbox="true" fit-margin-top="0" fit-margin-left="0" fit-margin-right="0" fit-margin-bottom="0" inkscape:showpageshadow="false">
    <sodipodi:guide orientation="0,1" position="599.99999,299.99993" id="guide3572"/>
    <sodipodi:guide orientation="1,0" position="294.41949,12.121716" id="guide3574"/>
    <sodipodi:guide orientation="0,1" position="456.04389,599.99992" id="guide3576"/>
    <sodipodi:guide orientation="0,1" position="-2.8882813e-06,-8.4406273e-05" id="guide3578"/>
    <sodipodi:guide orientation="1,0" position="-2.8882813e-06,157.58366" id="guide3580"/>
    <sodipodi:guide orientation="1,0" position="599.99999,121.21821" id="guide3582"/>
    <sodipodi:guide orientation="0,1" position="599.99999,-714.34359" id="guide5928"/>
    <sodipodi:guide orientation="0,1" position="599.99999,-414.34359" id="guide5930"/>
    <sodipodi:guide orientation="0,1" position="599.99999,-1014.3435" id="guide5932"/>
    <sodipodi:guide orientation="0,1" position="451.57029,524.99606" id="guide5294"/>
    <sodipodi:guide orientation="0,1" position="451.57029,75.013516" id="guide5296"/>
    <sodipodi:guide orientation="0,1" position="496.01499,-931.36409" id="guide5413"/>
    <sodipodi:guide orientation="0,1" position="457.34859,-489.34389" id="guide5415"/>
    <inkscape:grid type="xygrid" id="grid3070" empspacing="5" visible="true" enabled="true" snapvisiblegridlinesonly="true" originx="4.3243213e-05px" originy="-2.6947047e-05px"/>
  </sodipodi:namedview>
  <metadata id="metadata27670">
    <rdf:RDF>
      <cc:Work rdf:about="">
        <dc:format>image/svg+xml</dc:format>
        <dc:type rdf:resource="http://purl.org/dc/dcmitype/StillImage"/>
        <dc:title/>
      </cc:Work>
    </rdf:RDF>
  </metadata>
  <g inkscape:label="Camada 1" inkscape:groupmode="layer" id="layer1" transform="translate(3364.4171,-2100.7186)">
    <path id="path2997" d="m -3363.4171,2101.7186 0,6 6,0 0,-6 z m 8,0 0,6 6,0 0,-6 z m -6,2 1,0 1,0 1,0 0,1 0,1 0,1 -1,0 -1,0 -1,0 0,-1 0,-1 z m 8,0 1,0 0,1 1,0 0,1 -1,0 -1,0 0,1 -1,0 0,-1 1,0 0,-1 z m -7,1 0,1 1,0 0,-1 z m -3,5 0,6 6,0 0,-6 z m 8,0 0,6 6,0 0,-6 z m -6,1 1,0 0,1 1,0 0,-1 1,0 0,1 -1,0 0,1 1,0 0,1 -1,0 0,-1 -1,0 0,1 -1,0 0,-1 1,0 0,-1 -1,0 z m 7,1 1,0 1,0 1,0 0,1 0,1 -1,0 0,-1 -1,0 0,1 -1,0 0,-1 z" style="color:#000000;fill:#27303a;fill-opacity:0.7532808199999999682;fill-rule:nonzero;stroke:none;stroke-width:2.28571415000000000;marker:none;visibility:visible;display:inline;overflow:visible;enable-background:accumulate" inkscape:connector-curvature="0" sodipodi:nodetypes="ccccccccccccccccccccccccccccccccccccccccccccccccccccccccccccccccccccccccccccccccccccc" transform="translate(1,1)"/>
    <path style="color:#000000;fill:#f1f3f5;fill-opacity:0.90288714000000003;fill-rule:nonzero;stroke:none;stroke-width:2;marker:none;visibility:visible;display:inline;overflow:visible;enable-background:accumulate" d="M 0 0 L 0 8 L 1 8 L 8 8 L 8 7 L 8 1 L 8 0 L 1 0 L 0 0 z M 8 8 L 8 16 L 9 16 L 16 16 L 16 15 L 16 9 L 16 8 L 9 8 L 8 8 z M 9 0 L 9 1 L 15 1 L 15 7 L 16 7 L 16 1 L 16 0 L 9 0 z M 1 1 L 7 1 L 7 7 L 1 7 L 1 1 z M 3 3 L 3 6 L 4 6 L 5 6 L 6 6 L 6 4 L 6 3 L 4 3 L 3 3 z M 11 3 L 11 5 L 12 5 L 13 5 L 13 4 L 12 4 L 12 3 L 11 3 z M 11 5 L 10 5 L 10 6 L 11 6 L 11 5 z M 4 4 L 5 4 L 5 5 L 4 5 L 4 4 z M 0 9 L 0 16 L 1 16 L 7 16 L 7 15 L 1 15 L 1 9 L 0 9 z M 9 9 L 15 9 L 15 15 L 9 15 L 9 9 z M 3 10 L 3 11 L 4 11 L 4 10 L 3 10 z M 4 11 L 4 12 L 5 12 L 5 11 L 4 11 z M 5 11 L 6 11 L 6 10 L 5 10 L 5 11 z M 5 12 L 5 13 L 6 13 L 6 12 L 5 12 z M 4 12 L 3 12 L 3 13 L 4 13 L 4 12 z M 10 11 L 10 13 L 11 13 L 11 12 L 12 12 L 12 13 L 13 13 L 13 12 L 13 11 L 11 11 L 10 11 z " transform="translate(-3363.4171,2101.7186)" id="rect3013"/>
  </g>
</svg>
